X:110
T:Le Gadeliderot
C:Jean Duval
Z:robin.beech@mcgill.ca
N:Finish with part A
M:4/4
L:1/8
R:reel
K:D
DFAd BGBG | ABAG FDD2 | EDEF GFGA | BAGF EGFE | 
DFAd BGBG | ABAG F2(3ABc | defg edcB |1 cdef d4 :|2 cdef d3e |: 
fdAe fdAf | edef gece | fdAe fdAf | edcB A3A | 
Bdgd ceae | dfbf g2 fe | defg edcB |1 cdef d3e :|2 cdef d4 || 
cBcd edef | gfed e3d | cBcd edef | edcB c3d | 
cBcd edef | gfga e3d | cBcd edef | edcB AGFE |]

